themes/gb-theme/static/images/ccv-rainbow.svg

<svg xmlns="http://www.w3.org/2000/svg" class="logo-rainbow" xmlns:xlink="http://www.w3.org/1999/xlink" viewBox="0 0 362 154.4">
  <defs>
    <clipPath id="a" transform="translate(-16.3 -17.8)">
      <path d="M66.1,66.7A3.76,3.76,0,0,1,62.4,63V29.9a3.76,3.76,0,0,1,3.7-3.7H99.2a3.76,3.76,0,0,1,3.7,3.7V63a3.76,3.76,0,0,1-3.7,3.7Zm78.7,0a3.76,3.76,0,0,0,3.7-3.7V29.9a3.76,3.76,0,0,0-3.7-3.7H111.7a3.76,3.76,0,0,0-3.7,3.7V63a3.76,3.76,0,0,0,3.7,3.7ZM53.7,112.3a3.76,3.76,0,0,0,3.7-3.7V75.5a3.76,3.76,0,0,0-3.7-3.7H20.6a3.76,3.76,0,0,0-3.7,3.7v33.1a3.76,3.76,0,0,0,3.7,3.7Zm45.6,45.6a3.76,3.76,0,0,0,3.7-3.7V121.1a3.76,3.76,0,0,0-3.7-3.7H66.2a3.76,3.76,0,0,0-3.7,3.7v33.1a3.76,3.76,0,0,0,3.7,3.7Zm45.5,0a3.76,3.76,0,0,0,3.7-3.7V121.1a3.76,3.76,0,0,0-3.7-3.7H111.7a3.76,3.76,0,0,0-3.7,3.7v33.1a3.76,3.76,0,0,0,3.7,3.7Zm50.3-96.3V30.3a5.12,5.12,0,0,0-5.1-5.1H158.7a5.12,5.12,0,0,0-5.1,5.1V61.6a5.12,5.12,0,0,0,5.1,5.1H190A5,5,0,0,0,195.1,61.6ZM190,28.5a1.79,1.79,0,0,1,1.8,1.8V61.6a1.79,1.79,0,0,1-1.8,1.8H158.7a1.79,1.79,0,0,1-1.8-1.8V30.3a1.79,1.79,0,0,1,1.8-1.8Zm50.6,33.1V30.3a5.12,5.12,0,0,0-5.1-5.1H204.2a5.12,5.12,0,0,0-5.1,5.1V61.6a5.12,5.12,0,0,0,5.1,5.1h31.3A5,5,0,0,0,240.6,61.6Zm-5.1-33.1a1.79,1.79,0,0,1,1.8,1.8V61.6a1.79,1.79,0,0,1-1.8,1.8H204.2a1.79,1.79,0,0,1-1.8-1.8V30.3a1.79,1.79,0,0,1,1.8-1.8Zm-86,78.7V75.9a5.12,5.12,0,0,0-5.1-5.1H113.1a5.12,5.12,0,0,0-5.1,5.1v31.3a5.12,5.12,0,0,0,5.1,5.1h31.3A5.12,5.12,0,0,0,149.5,107.2Zm-5.1-33.1a1.79,1.79,0,0,1,1.8,1.8v31.3a1.79,1.79,0,0,1-1.8,1.8H113.1a1.79,1.79,0,0,1-1.8-1.8V75.9a1.79,1.79,0,0,1,1.8-1.8Zm50.7,78.7V121.5a5.12,5.12,0,0,0-5.1-5.1H158.7a5.12,5.12,0,0,0-5.1,5.1v31.3a5.12,5.12,0,0,0,5.1,5.1H190A5.12,5.12,0,0,0,195.1,152.8ZM190,119.6a1.79,1.79,0,0,1,1.8,1.8v31.3a1.79,1.79,0,0,1-1.8,1.8H158.7a1.79,1.79,0,0,1-1.8-1.8V121.4a1.79,1.79,0,0,1,1.8-1.8Zm50.6,33.2V121.5a5.12,5.12,0,0,0-5.1-5.1H204.2a5.12,5.12,0,0,0-5.1,5.1v31.3a5.12,5.12,0,0,0,5.1,5.1h31.3A5.06,5.06,0,0,0,240.6,152.8Zm-5.1-33.2a1.79,1.79,0,0,1,1.8,1.8v31.3a1.79,1.79,0,0,1-1.8,1.8H204.2a1.79,1.79,0,0,1-1.8-1.8V121.4a1.79,1.79,0,0,1,1.8-1.8Zm50.2-43.7a3.76,3.76,0,0,0-3.7-3.7H248.9a3.76,3.76,0,0,0-3.7,3.7V109a3.76,3.76,0,0,0,3.7,3.7H282a3.76,3.76,0,0,0,3.7-3.7Zm0-45.6a3.76,3.76,0,0,0-3.7-3.7H248.9a3.76,3.76,0,0,0-3.7,3.7V63.4a3.76,3.76,0,0,0,3.7,3.7H282a3.76,3.76,0,0,0,3.7-3.7Zm45.6,91.2a3.76,3.76,0,0,0-3.7-3.7H294.5a3.76,3.76,0,0,0-3.7,3.7v33.1a3.76,3.76,0,0,0,3.7,3.7h33.1a3.76,3.76,0,0,0,3.7-3.7Zm45.6-45.6a3.76,3.76,0,0,0-3.7-3.7H340.1a3.76,3.76,0,0,0-3.7,3.7V109a3.76,3.76,0,0,0,3.7,3.7h33.1a3.76,3.76,0,0,0,3.7-3.7Zm0-45.6a3.76,3.76,0,0,0-3.7-3.7H340.1a3.76,3.76,0,0,0-3.7,3.7V63.4a3.76,3.76,0,0,0,3.7,3.7h33.1a3.76,3.76,0,0,0,3.7-3.7Z" style="fill: none"/>
    </clipPath>
    <linearGradient id="b" x1="-227.42" y1="216.07" x2="30.78" y2="-42.13" gradientTransform="translate(82.71 164.2) rotate(180)" gradientUnits="userSpaceOnUse">
      <stop offset="0.1" stop-color="#e40303"/>
      <stop offset="0.24" stop-color="#ff8c00"/>
      <stop offset="0.29" stop-color="#ff8e00"/>
      <stop offset="0.32" stop-color="#ff9600"/>
      <stop offset="0.35" stop-color="#ffa400"/>
      <stop offset="0.37" stop-color="#ffb700"/>
      <stop offset="0.39" stop-color="#ffd000"/>
      <stop offset="0.4" stop-color="#ffed00"/>
      <stop offset="0.43" stop-color="#fcec00"/>
      <stop offset="0.45" stop-color="#f2e702"/>
      <stop offset="0.47" stop-color="#e0e005"/>
      <stop offset="0.49" stop-color="#c8d608"/>
      <stop offset="0.51" stop-color="#a9c80d"/>
      <stop offset="0.52" stop-color="#83b812"/>
      <stop offset="0.54" stop-color="#56a519"/>
      <stop offset="0.56" stop-color="#238f21"/>
      <stop offset="0.57" stop-color="#008026"/>
      <stop offset="0.64" stop-color="#008028"/>
      <stop offset="0.67" stop-color="#007e2f"/>
      <stop offset="0.68" stop-color="#007b3a"/>
      <stop offset="0.7" stop-color="#00774b"/>
      <stop offset="0.71" stop-color="#007261"/>
      <stop offset="0.72" stop-color="#006c7d"/>
      <stop offset="0.74" stop-color="#00649d"/>
      <stop offset="0.74" stop-color="#005bc3"/>
      <stop offset="0.75" stop-color="#0051ec"/>
      <stop offset="0.76" stop-color="#004dff"/>
      <stop offset="0.8" stop-color="#1143ee"/>
      <stop offset="0.88" stop-color="#3d29c1"/>
      <stop offset="0.98" stop-color="#750787"/>
    </linearGradient>
  </defs>
  <title>ccv-rainbow-5x2-5</title>
  <g style="clip-path: url(#a)">
    <polygon points="0 154.4 362 154.4 362 0 0 0.1 0 154.4" style="fill: url(#b)"/>
  </g>
</svg>

<svg version="1.1" id="Layer_1" class="logo-rainbow" xmlns="http://www.w3.org/2000/svg" xmlns:xlink="http://www.w3.org/1999/xlink" x="0px" y="0px"
	 viewBox="0 0 396 180" style="enable-background:new 0 0 396 180;" xml:space="preserve">
<style type="text/css">
	.st0{clip-path:url(#SVGID_2_);fill:url(#SVGID_3_);}
</style>
<g>
	<defs>
		<path id="SVGID_1_" d="M66.1,66.7c-2,0-3.7-1.7-3.7-3.7l0-33.1c0-2,1.7-3.7,3.7-3.7l33.1,0c2,0,3.7,1.7,3.7,3.7l0,33.1
			c0,2-1.7,3.7-3.7,3.7L66.1,66.7z M144.8,66.7c2,0,3.7-1.7,3.7-3.7l0-33.1c0-2-1.7-3.7-3.7-3.7l-33.1,0c-2,0-3.7,1.7-3.7,3.7
			l0,33.1c0,2,1.7,3.7,3.7,3.7L144.8,66.7z M53.7,112.3c2,0,3.7-1.7,3.7-3.7l0-33.1c0-2-1.7-3.7-3.7-3.7l-33.1,0
			c-2,0-3.7,1.7-3.7,3.7l0,33.1c0,2,1.7,3.7,3.7,3.7L53.7,112.3z M99.3,157.9c2,0,3.7-1.7,3.7-3.7l0-33.1c0-2-1.7-3.7-3.7-3.7
			l-33.1,0c-2,0-3.7,1.7-3.7,3.7l0,33.1c0,2,1.7,3.7,3.7,3.7L99.3,157.9z M144.8,157.9c2,0,3.7-1.7,3.7-3.7l0-33.1
			c0-2-1.7-3.7-3.7-3.7l-33.1,0c-2,0-3.7,1.7-3.7,3.7l0,33.1c0,2,1.7,3.7,3.7,3.7L144.8,157.9z M195.1,61.6l0-31.3
			c0-2.8-2.3-5.1-5.1-5.1l-31.3,0c-2.8,0-5.1,2.3-5.1,5.1l0,31.3c0,2.8,2.3,5.1,5.1,5.1l31.3,0C192.8,66.8,195.1,64.5,195.1,61.6z
			 M190,28.5c1,0,1.8,0.8,1.8,1.8l0,31.3c0,1-0.8,1.8-1.8,1.8l-31.3,0c-1,0-1.8-0.8-1.8-1.8l0-31.3c0-1,0.8-1.8,1.8-1.8L190,28.5z
			 M240.6,61.6l0-31.3c0-2.8-2.3-5.1-5.1-5.1l-31.3,0c-2.8,0-5.1,2.3-5.1,5.1l0,31.3c0,2.8,2.3,5.1,5.1,5.1l31.3,0
			C238.3,66.8,240.6,64.5,240.6,61.6z M235.5,28.5c1,0,1.8,0.8,1.8,1.8l0,31.3c0,1-0.8,1.8-1.8,1.8l-31.3,0c-1,0-1.8-0.8-1.8-1.8
			l0-31.3c0-1,0.8-1.8,1.8-1.8L235.5,28.5z M149.5,107.2l0-31.3c0-2.8-2.3-5.1-5.1-5.1l-31.3,0c-2.8,0-5.1,2.3-5.1,5.1l0,31.3
			c0,2.8,2.3,5.1,5.1,5.1l31.3,0C147.2,112.3,149.5,110,149.5,107.2z M144.4,74.1c1,0,1.8,0.8,1.8,1.8l0,31.3c0,1-0.8,1.8-1.8,1.8
			l-31.3,0c-1,0-1.8-0.8-1.8-1.8l0-31.3c0-1,0.8-1.8,1.8-1.8L144.4,74.1z M195.1,152.8l0-31.3c0-2.8-2.3-5.1-5.1-5.1l-31.3,0
			c-2.8,0-5.1,2.3-5.1,5.1l0,31.3c0,2.8,2.3,5.1,5.1,5.1l31.3,0C192.8,157.9,195.1,155.6,195.1,152.8z M190,119.6
			c1,0,1.8,0.8,1.8,1.8l0,31.3c0,1-0.8,1.8-1.8,1.8l-31.3,0c-1,0-1.8-0.8-1.8-1.8l0-31.3c0-1,0.8-1.8,1.8-1.8L190,119.6z
			 M240.6,152.8l0-31.3c0-2.8-2.3-5.1-5.1-5.1l-31.3,0c-2.8,0-5.1,2.3-5.1,5.1l0,31.3c0,2.8,2.3,5.1,5.1,5.1l31.3,0
			C238.4,157.9,240.6,155.6,240.6,152.8z M235.5,119.6c1,0,1.8,0.8,1.8,1.8l0,31.3c0,1-0.8,1.8-1.8,1.8l-31.3,0
			c-1,0-1.8-0.8-1.8-1.8l0-31.3c0-1,0.8-1.8,1.8-1.8L235.5,119.6z M285.7,75.9c0-2-1.7-3.7-3.7-3.7l-33.1,0c-2,0-3.7,1.7-3.7,3.7
			l0,33.1c0,2,1.7,3.7,3.7,3.7l33.1,0c2,0,3.7-1.7,3.7-3.7L285.7,75.9z M285.7,30.3c0-2-1.7-3.7-3.7-3.7l-33.1,0
			c-2,0-3.7,1.7-3.7,3.7l0,33.1c0,2,1.7,3.7,3.7,3.7l33.1,0c2,0,3.7-1.7,3.7-3.7L285.7,30.3z M331.3,121.5c0-2-1.7-3.7-3.7-3.7
			l-33.1,0c-2,0-3.7,1.7-3.7,3.7l0,33.1c0,2,1.7,3.7,3.7,3.7l33.1,0c2,0,3.7-1.7,3.7-3.7L331.3,121.5z M376.9,75.9
			c0-2-1.7-3.7-3.7-3.7l-33.1,0c-2,0-3.7,1.7-3.7,3.7l0,33.1c0,2,1.7,3.7,3.7,3.7l33.1,0c2,0,3.7-1.7,3.7-3.7L376.9,75.9z
			 M376.9,30.3c0-2-1.7-3.7-3.7-3.7l-33.1,0c-2,0-3.7,1.7-3.7,3.7l0,33.1c0,2,1.7,3.7,3.7,3.7l33.1,0c2,0,3.7-1.7,3.7-3.7
			L376.9,30.3z"/>
	</defs>
	<clipPath id="SVGID_2_">
		<use xlink:href="#SVGID_1_"  style="overflow:visible;"/>
	</clipPath>
	
		<linearGradient id="SVGID_3_" gradientUnits="userSpaceOnUse" x1="94.5819" y1="-34.0723" x2="352.812" y2="224.1578" gradientTransform="matrix(-1 2.934817e-05 2.934817e-05 1 420.996 -6.255210e-03)">
		<stop  offset="9.867788e-02" style="stop-color:#E40303"/>
		<stop  offset="0.2357" style="stop-color:#FF8C00"/>
		<stop  offset="0.2928" style="stop-color:#FF8E00"/>
		<stop  offset="0.323" style="stop-color:#FF9600"/>
		<stop  offset="0.347" style="stop-color:#FFA400"/>
		<stop  offset="0.3677" style="stop-color:#FFB700"/>
		<stop  offset="0.386" style="stop-color:#FFD000"/>
		<stop  offset="0.4025" style="stop-color:#FFED00"/>
		<stop  offset="0.4286" style="stop-color:#FCEC00"/>
		<stop  offset="0.4499" style="stop-color:#F2E702"/>
		<stop  offset="0.4695" style="stop-color:#E0E005"/>
		<stop  offset="0.4881" style="stop-color:#C8D608"/>
		<stop  offset="0.506" style="stop-color:#A9C80D"/>
		<stop  offset="0.5234" style="stop-color:#83B812"/>
		<stop  offset="0.5403" style="stop-color:#56A519"/>
		<stop  offset="0.5565" style="stop-color:#238F21"/>
		<stop  offset="0.5662" style="stop-color:#008026"/>
		<stop  offset="0.6396" style="stop-color:#008028"/>
		<stop  offset="0.666" style="stop-color:#007E2F"/>
		<stop  offset="0.6849" style="stop-color:#007B3A"/>
		<stop  offset="0.7001" style="stop-color:#00774B"/>
		<stop  offset="0.7132" style="stop-color:#007261"/>
		<stop  offset="0.7248" style="stop-color:#006C7D"/>
		<stop  offset="0.7352" style="stop-color:#00649D"/>
		<stop  offset="0.7448" style="stop-color:#005BC3"/>
		<stop  offset="0.7534" style="stop-color:#0051EC"/>
		<stop  offset="0.7569" style="stop-color:#004DFF"/>
		<stop  offset="0.7995" style="stop-color:#1143EE"/>
		<stop  offset="0.8841" style="stop-color:#3D29C1"/>
		<stop  offset="0.9798" style="stop-color:#750787"/>
	</linearGradient>
	<polygon class="st0" points="16.3,172.2 378.3,172.2 378.3,17.8 16.3,17.9 	"/>
</g>
</svg>
